src/next/cmd/sc_insertslidenumber.svg

<svg enable-background="new 0 0 128 128" height="16" viewBox="0 0 16 16" width="16" xmlns="http://www.w3.org/2000/svg" xmlns:xlink="http://www.w3.org/1999/xlink"><filter id="a" color-interpolation-filters="sRGB" height="1.132" width="1.11" x="-.055" y="-.066"><feGaussianBlur stdDeviation=".600459"/></filter><filter id="b" color-interpolation-filters="sRGB" height="1.0264" width="1.022" x="-.011" y="-.0132"><feGaussianBlur stdDeviation=".1200918"/></filter><filter id="c" color-interpolation-filters="sRGB" height="1.0528" width="1.044" x="-.022" y="-.0264"><feGaussianBlur stdDeviation=".2401836"/></filter><linearGradient id="d" gradientTransform="matrix(-.84615404 0 0 -.80489557 31.261552 507.595)" gradientUnits="userSpaceOnUse" x1="0" x2="31.942419" y1="294.88333" y2="274.79138"><stop offset="0" stop-color="#cccdcf"/><stop offset=".11366145" stop-color="#e0e0e1"/><stop offset=".20296694" stop-color="#f2f2f2"/><stop offset=".21468808" stop-color="#fafafa"/><stop offset=".21468808" stop-color="#fff"/><stop offset=".5313" stop-color="#fafafa"/><stop offset=".8449" stop-color="#ebecec"/><stop offset="1" stop-color="#e1e2e3"/></linearGradient><g transform="matrix(.47244094 0 0 .47244094 -.000001 -124.314952)"><path d="m2.4287318 271.26587h29.0092052v21.83486h-29.0092052z" fill="#a4a4a4" filter="url(#a)" transform="matrix(-1.09448 0 0 -1.09448 35.466532 588.91063)"/><path d="m1.8599554 271.26588h30.1467556v21.83486h-30.1467556z" fill="#949494" filter="url(#b)" transform="matrix(-1.0531812 0 0 -1.0531812 34.767212 577.25679)"/><path d="m1.7325692 271.26588h30.4015288v21.83486h-30.4015288z" fill="#313131" filter="url(#c)" transform="matrix(-1.0080161 0 0 -1.0080161 34.002412 564.51196)"/><path d="m31.750012 290.64996h-29.63334v-21.16664h29.63334z" fill="#f8f8f8" opacity=".99"/><path d="m28.575012 287.47496h-23.28334v-14.81666h23.28334z" fill="url(#d)" opacity=".99"/><g fill="#cacaca"><path d="m29.633342 288.5333h-1.05833v-16.93333h1.05833z"/><path d="m5.291682 288.5333h-1.05834v-16.93333h1.05834z"/><path d="m28.575002 287.47498v1.05833h-23.28333v-1.05833z"/><path d="m28.575002 271.59995v1.05833h-23.28333v-1.05833z"/></g></g><g fill="#1450b3"><path d="m43.636196-94.882935h8.000002v48.000008h-8.000002z" transform="matrix(0 .125 -.125 0 -.860367 .545476)"/><path d="m67.6362-94.882935h8.000002v48h-8.000002z" transform="matrix(0 .125 -.125 0 -.860367 .545476)"/><g transform="matrix(-.125 0 0 -.125 15.454524 .139634)"><path d="m43.636196-86.882942h8.000002v48.000008h-8.000002z"/><path d="m67.6362-86.882935h8.000002v48h-8.000002z"/></g></g></svg>

<?xml version="1.0" encoding="UTF-8" standalone="no"?>
<svg
   xmlns:dc="http://purl.org/dc/elements/1.1/"
   xmlns:cc="http://creativecommons.org/ns#"
   xmlns:rdf="http://www.w3.org/1999/02/22-rdf-syntax-ns#"
   xmlns:svg="http://www.w3.org/2000/svg"
   xmlns="http://www.w3.org/2000/svg"
   xmlns:sodipodi="http://sodipodi.sourceforge.net/DTD/sodipodi-0.dtd"
   xmlns:inkscape="http://www.inkscape.org/namespaces/inkscape"
   enable-background="new 0 0 128 128"
   height="16"
   viewBox="0 0 16 16"
   width="16"
   version="1.1"
   id="svg107"
   sodipodi:docname="sc_insertslidenumber.svg"
   inkscape:version="0.92.3 (2405546, 2018-03-11)"
   inkscape:export-filename="/home/rizmut/Dokumen/Rizmut/Github/libreoffice-style-karasa-jaga/build/next/cmd/sc_insertslidenumber.png"
   inkscape:export-xdpi="96"
   inkscape:export-ydpi="96">
  <metadata
     id="metadata113">
    <rdf:RDF>
      <cc:Work
         rdf:about="">
        <dc:format>image/svg+xml</dc:format>
        <dc:type
           rdf:resource="http://purl.org/dc/dcmitype/StillImage" />
        <dc:title></dc:title>
      </cc:Work>
    </rdf:RDF>
  </metadata>
  <defs
     id="defs111">
    <filter
       style="color-interpolation-filters:sRGB"
       id="c-3"
       height="1.132"
       width="1.11"
       x="-0.055"
       y="-0.066">
      <feGaussianBlur
         stdDeviation=".600459"
         id="feGaussianBlur22" />
    </filter>
    <filter
       style="color-interpolation-filters:sRGB"
       id="b-6"
       height="1.0264"
       width="1.022"
       x="-0.011"
       y="-0.0132">
      <feGaussianBlur
         stdDeviation=".1200918"
         id="feGaussianBlur19" />
    </filter>
    <filter
       style="color-interpolation-filters:sRGB"
       id="d-7"
       height="1.0528001"
       width="1.044"
       x="-0.022"
       y="-0.0264">
      <feGaussianBlur
         stdDeviation=".2401836"
         id="feGaussianBlur25" />
    </filter>
    <linearGradient
       id="a-5"
       gradientTransform="matrix(-0.84615404,0,0,-0.80489557,31.261552,507.595)"
       gradientUnits="userSpaceOnUse"
       x1="0"
       x2="31.942419"
       y1="294.88333"
       y2="274.79138">
      <stop
         offset="0"
         stop-color="#cccdcf"
         id="stop2-3" />
      <stop
         offset=".11366145"
         stop-color="#e0e0e1"
         id="stop4-5" />
      <stop
         offset=".20296694"
         stop-color="#f2f2f2"
         id="stop6" />
      <stop
         offset=".21468808"
         stop-color="#fafafa"
         id="stop8" />
      <stop
         offset=".21468808"
         stop-color="#fff"
         id="stop10" />
      <stop
         offset=".5313"
         stop-color="#fafafa"
         id="stop12" />
      <stop
         offset=".8449"
         stop-color="#ebecec"
         id="stop14" />
      <stop
         offset="1"
         stop-color="#e1e2e3"
         id="stop16" />
    </linearGradient>
  </defs>
  <sodipodi:namedview
     pagecolor="#ffffff"
     bordercolor="#666666"
     borderopacity="1"
     objecttolerance="10"
     gridtolerance="10"
     guidetolerance="10"
     inkscape:pageopacity="0"
     inkscape:pageshadow="2"
     inkscape:window-width="1366"
     inkscape:window-height="714"
     id="namedview109"
     showgrid="true"
     inkscape:snap-global="true"
     inkscape:zoom="20.85965"
     inkscape:cx="7.0863471"
     inkscape:cy="13.258539"
     inkscape:window-x="0"
     inkscape:window-y="28"
     inkscape:window-maximized="1"
     inkscape:current-layer="svg107">
    <inkscape:grid
       type="xygrid"
       id="grid920"
       spacingx="0.5"
       spacingy="0.5"
       empspacing="2" />
  </sodipodi:namedview>
  <linearGradient
     id="a"
     gradientUnits="userSpaceOnUse"
     x1="85.219681"
     x2="61.336319"
     y1="93.219681"
     y2="69.336319">
    <stop
       offset="0"
       id="stop2" />
    <stop
       offset="1"
       stop-color="#393b38"
       id="stop4" />
  </linearGradient>
  <linearGradient
     id="b"
     gradientUnits="userSpaceOnUse"
     x1="96"
     x2="88.000198"
     y1="104"
     y2="96.000198">
    <stop
       offset="0"
       stop-color="#888a85"
       id="stop7" />
    <stop
       offset=".0072"
       stop-color="#8c8e89"
       id="stop9" />
    <stop
       offset=".0673"
       stop-color="#abaca9"
       id="stop11" />
    <stop
       offset=".1347"
       stop-color="#c5c6c4"
       id="stop13" />
    <stop
       offset=".2115"
       stop-color="#dbdbda"
       id="stop15" />
    <stop
       offset=".3012"
       stop-color="#ebebeb"
       id="stop17" />
    <stop
       offset=".4122"
       stop-color="#f7f7f6"
       id="stop19" />
    <stop
       offset=".5679"
       stop-color="#fdfdfd"
       id="stop21" />
    <stop
       offset="1"
       stop-color="#fff"
       id="stop23" />
  </linearGradient>
  <radialGradient
     id="c"
     cx="102"
     cy="112.3047"
     gradientTransform="matrix(0.9787234,0,0,0.9818182,1.3617,1.163636)"
     gradientUnits="userSpaceOnUse"
     r="139.55859">
    <stop
       offset="0"
       stop-color="#535557"
       id="stop26" />
    <stop
       offset=".11366145"
       stop-color="#898a8c"
       id="stop28" />
    <stop
       offset=".20296688"
       stop-color="#ececec"
       id="stop30" />
    <stop
       offset=".2363"
       stop-color="#fafafa"
       id="stop32" />
    <stop
       offset=".2722"
       stop-color="#fff"
       id="stop34" />
    <stop
       offset=".5313"
       stop-color="#fafafa"
       id="stop36" />
    <stop
       offset=".8449"
       stop-color="#ebecec"
       id="stop38" />
    <stop
       offset="1"
       stop-color="#e1e2e3"
       id="stop40" />
  </radialGradient>
  <radialGradient
     id="d"
     cx="102"
     cy="112.3047"
     gradientUnits="userSpaceOnUse"
     r="139.5585">
    <stop
       offset="0"
       stop-color="#00537d"
       id="stop43" />
    <stop
       offset=".0151"
       stop-color="#186389"
       id="stop45" />
    <stop
       offset=".0558"
       stop-color="#558ca8"
       id="stop47" />
    <stop
       offset=".0964"
       stop-color="#89afc3"
       id="stop49" />
    <stop
       offset=".1357"
       stop-color="#b3ccd8"
       id="stop51" />
    <stop
       offset=".1737"
       stop-color="#d4e2e9"
       id="stop53" />
    <stop
       offset=".2099"
       stop-color="#ecf2f5"
       id="stop55" />
    <stop
       offset=".2435"
       stop-color="#fafcfd"
       id="stop57" />
    <stop
       offset=".2722"
       stop-color="#fff"
       id="stop59" />
  </radialGradient>
  <filter
     id="e">
    <feGaussianBlur
       stdDeviation="1.0394514"
       id="feGaussianBlur62" />
  </filter>
  <filter
     id="f">
    <feGaussianBlur
       stdDeviation=".50063244"
       id="feGaussianBlur65" />
  </filter>
  <filter
     id="g">
    <feGaussianBlur
       stdDeviation=".4901192"
       id="feGaussianBlur68" />
  </filter>
  <filter
     id="h">
    <feGaussianBlur
       stdDeviation=".90565481"
       id="feGaussianBlur71" />
  </filter>
  <filter
     id="i"
     height="1.247155"
     width="1.247155"
     x="-0.123577"
     y="-0.123577">
    <feGaussianBlur
       stdDeviation="1.7720846"
       id="feGaussianBlur74" />
  </filter>
  <g
     id="g905"
     transform="matrix(0.125,0,0,0.125,-1.1043792e-6,7.8532418e-7)">
    <g
       id="g50"
       transform="matrix(3.7795275,0,0,3.7795275,2.3384729e-8,-994.51962)">
      <path
         id="path28"
         transform="matrix(-1.09448,0,0,-1.09448,35.466532,588.91063)"
         d="M 2.4287318,271.26587 H 31.437937 v 21.83486 H 2.4287318 Z"
         inkscape:connector-curvature="0"
         style="fill:#a4a4a4;filter:url(#c-3)" />
      <path
         id="path30"
         transform="matrix(-1.0531812,0,0,-1.0531812,34.767212,577.25679)"
         d="M 1.8599554,271.26588 H 32.006711 v 21.83486 H 1.8599554 Z"
         inkscape:connector-curvature="0"
         style="fill:#949494;filter:url(#b-6)" />
      <path
         id="path32"
         transform="matrix(-1.0080161,0,0,-1.0080161,34.002412,564.51196)"
         d="M 1.7325692,271.26588 H 32.134098 v 21.83486 H 1.7325692 Z"
         inkscape:connector-curvature="0"
         style="fill:#313131;filter:url(#d-7)" />
      <path
         id="path34"
         d="M 31.750012,290.64996 H 2.116672 v -21.16664 h 29.63334 z"
         inkscape:connector-curvature="0"
         style="opacity:0.98999999;fill:#f8f8f8" />
      <path
         id="path36"
         d="M 28.575012,287.47496 H 5.291672 V 272.6583 h 23.28334 z"
         inkscape:connector-curvature="0"
         style="opacity:0.98999999;fill:url(#a-5)" />
      <g
         id="g48"
         style="fill:#cacaca">
        <path
           id="path38"
           d="m 29.633342,288.5333 h -1.05833 v -16.93333 h 1.05833 z"
           inkscape:connector-curvature="0" />
        <path
           id="path40"
           d="m 5.291682,288.5333 h -1.05834 v -16.93333 h 1.05834 z"
           inkscape:connector-curvature="0" />
        <path
           id="path42"
           d="m 28.575002,287.47498 v 1.05833 H 5.291672 v -1.05833 z"
           inkscape:connector-curvature="0" />
        <path
           id="path44"
           d="m 28.575002,271.59995 v 1.05833 H 5.291672 v -1.05833 z"
           inkscape:connector-curvature="0" />
      </g>
    </g>
    <g
       transform="translate(-23.999997,15.999996)"
       id="g1001">
      <g
         id="g993"
         transform="translate(17.117066,-11.636198)">
        <rect
           ry="0"
           transform="rotate(90)"
           style="opacity:1;fill:#1450b3;fill-opacity:1;stroke:none;stroke-width:21.27864075;stroke-linecap:round;stroke-linejoin:round;stroke-miterlimit:4;stroke-dasharray:none;stroke-dashoffset:0;stroke-opacity:1"
           id="rect989"
           width="8.0000019"
           height="48.000008"
           x="43.636196"
           y="-94.882935" />
        <rect
           y="-94.882935"
           x="67.6362"
           height="48"
           width="8.0000019"
           id="rect991"
           style="opacity:1;fill:#1450b3;fill-opacity:1;stroke:none;stroke-width:21.27864075;stroke-linecap:round;stroke-linejoin:round;stroke-miterlimit:4;stroke-dasharray:none;stroke-dashoffset:0;stroke-opacity:1"
           transform="rotate(90)" />
      </g>
      <g
         transform="rotate(90,81.259567,66.376633)"
         id="g999">
        <rect
           y="-86.882942"
           x="43.636196"
           height="48.000008"
           width="8.0000019"
           id="rect995"
           style="opacity:1;fill:#1450b3;fill-opacity:1;stroke:none;stroke-width:21.27864075;stroke-linecap:round;stroke-linejoin:round;stroke-miterlimit:4;stroke-dasharray:none;stroke-dashoffset:0;stroke-opacity:1"
           transform="rotate(90)"
           ry="0" />
        <rect
           transform="rotate(90)"
           style="opacity:1;fill:#1450b3;fill-opacity:1;stroke:none;stroke-width:21.27864075;stroke-linecap:round;stroke-linejoin:round;stroke-miterlimit:4;stroke-dasharray:none;stroke-dashoffset:0;stroke-opacity:1"
           id="rect997"
           width="8.0000019"
           height="48"
           x="67.6362"
           y="-86.882935" />
      </g>
    </g>
  </g>
</svg>
